X:164
T: Shake Dem Bones
C: Brian Jenkins
M: 4/4
L: 1/8
K: G
 d3/2e/ |"G"g2G2"Em"G2G2| "Am"_B3/2A/  G/(d3/2  "D7"d3/2)d/ e2|"G"g2 G3/2_B/  "Em"A3/2G/  B3/2A/ | "Am"G3/2A/  _B3/2(d/  "D7"d3/2)d/ e2|
"G"g2G2"G/F"G2G2| "G/E"g3/2c/  d/(_e3/2  "G/Eb"e3/2)g/ a2| "D7"b3/2a/  g3/2=e/  d3/2_B/  A/(G3/2 |[1"G"G6) "D7"d/e3/2 :| [2"G"(G4 "G7"G)G  F=F || 
"C"E2e2e4| "C"e3/2d/  c/(e3/2 e4)|"G"d2d2 d3/2c/  B/(d3/2 |"E7"d8)|
"A7"^c2c2 B/(A3/2  A3/2)B/ | "A7"^c3/2e/  c/(B3/2  B3/2)A/  B3/2c/ |"D"d2d2"A7"=f2 e/(d3/2 |"D"d6) "D7"d/e3/2 |
"G"g2G2"Em"G2G2| "Am"_B3/2A/  G/(d3/2  "D7"d3/2)d/ e2|"G"g2 G3/2_B/  "Em"A3/2G/  B3/2A/ |"Am"G3/2A/  _B3/2(d/  "D7"d3/2)d/ e2|
"G"g2G2"G/F"G2G2| "G/E"g3/2c/  d/(_e3/2  "G/Eb"e3/2)g/ a2| "D7"b3/2a/  g3/2=e/  d3/2_B/  A/(G3/2 |"G"G8)|] 

%%newpage
